Papirus/16x16/apps/iconoclasts.svg

<svg width="16" height="16" version="1.1" xmlns="http://www.w3.org/2000/svg">
 <circle cx="8" cy="8" r="8" style="fill:#8f2b00"/>
 <g transform="translate(-14 3)">
  <g transform="matrix(.40406 -.40406 .40406 .40406 -5.9239 29.732)" style="fill:#ffd401">
   <path transform="matrix(1.2374 1.2374 -1.2374 1.2374 65.159 -15.849)" d="m8 3-2 2v2l-2.002 2.002a2.1215 2.1215 0 0 0-0.017578 0.017578 2.1215 2.1215 0 0 0 0.017578 2.9805 2.1215 2.1215 0 0 0 3 0 2.1215 2.1215 0 0 0 0.017578-0.017578l1.9824-1.9824h2.002l2-2v-3l-2.5 2.5-2-2c0.42199-0.422 1.7256-1.7256 2.5-2.5h-3z" style="fill:#ffd401"/>
  </g>
 </g>
 <circle cx="5.5" cy="10.5" r="1" style="fill:#8f2b00"/>
</svg>

<svg xmlns="http://www.w3.org/2000/svg" width="16" height="16" version="1.1">
 <circle style="fill:#8f2b00" cx="8" cy="8" r="8"/>
 <path style="fill:#ffd401" d="M 8 3 L 6 5 L 6 7 L 3.6035 9.3984 C 2.7928 10.229 2.8006 11.56 3.6211 12.381 C 4.4495 13.209 5.7931 13.209 6.6211 12.381 L 9 10 L 11 10 L 13 8 L 13 5 L 10.5 7.5 L 8.5 5.5 L 11 3 L 8 3 z M 5 10 A 1 1 0 0 1 6 11 A 1 1 0 0 1 5 12 A 1 1 0 0 1 4 11 A 1 1 0 0 1 5 10 z"/>
</svg>
